SVG/ico__cup.svg

<?xml version="1.0" encoding="UTF-8"?>
<svg id="Calque_1" data-name="Calque 1" xmlns="http://www.w3.org/2000/svg" viewBox="0 0 240 240">
  <defs>
    <style>
      .cls-1 {
        fill: #010101;
      }
    </style>
  </defs>
  <path class="cls-1" d="M210,120c0-24.19-17.18-44.36-40-49v-31H50v140.07c0,11.01,8.93,19.93,19.93,19.93h80.13c11.01,0,19.93-8.93,19.93-19.93v-11.07c22.82-4.63,40-24.81,40-49ZM150,180h-80V60h80v120ZM170,148.29v-56.57c11.65,4.12,20,15.22,20,28.29s-8.35,24.17-20,28.29Z"/>
</svg>

<svg width="240" height="240" viewBox="0 0 240 240" fill="none" xmlns="http://www.w3.org/2000/svg">
<path d="M210 120C210 95.81 192.82 75.64 170 71V40H50V180.07C50 191.08 58.93 200 69.93 200H150.06C161.07 200 169.99 191.07 169.99 180.07V169C192.81 164.37 209.99 144.19 209.99 120H210ZM150 180H70V60H150V180ZM170 148.29V91.72C181.65 95.84 190 106.94 190 120.01C190 133.08 181.65 144.18 170 148.3V148.29Z" fill="black"/>
</svg>
